!!!OTL: No_42_Look_at_the_Poppy_Flowers,_Growing_Fine.krn
!!!REG: Northern California
!!!LANG: Non-Tone
!!!SOCIAL_FUNCTION: songs connected with girls' adolecence ceremony
!!!LING_GROUP: Penutian
**kern
*staff1
=1-
*clefF4
*k[f#]
*M2/4
4A\
8F#\L
8E\J
=2
4A\
8A\
8r
=3
*M3/4
8.F#\L
16E\Jk
8D\L
8D\J
8.E\L
16E\Jk
=4
*M2/4
8.A\L
16G\Jk
8G\
8r
=5
*M3/4
(8G\L
8E\J)
8D\L
8D\J
8E\L
8E\J
=6
=
*M2/4
8.A\L
16A\Jk
8A\
8r
=7
8B\L
8A\J
4G\
=8
8A\L
8A\J
4A\
=9
8G\L
8E\J
4D\
=10
*M3/4
8.E\L
16E\Jk
8.A\L
16G\Jk
8G\
8r
=11
4E\
8.D\L
16D\Jk
8E\
8r
==:|!
*-
